blockchains/bitcoin/logo.svg

<svg fill="none" height="250" viewBox="0 0 250 250" width="250" xmlns="http://www.w3.org/2000/svg" xmlns:xlink="http://www.w3.org/1999/xlink"><clipPath id="a"><path d="m0 0h250v250h-250z"/></clipPath><g clip-path="url(#a)"><path d="m246.072 155.421c-16.695 66.965-84.519 107.719-151.4922 91.02-66.9448-16.695-107.6984-84.524-90.99639-151.4831 16.68729-66.9723 84.51189-107.7289 151.46359-91.03425 66.968 16.69465 107.72 84.53085 91.023 151.49935l.001-.002z" fill="#f7931a"/><path d="m180.12 107.191c2.488-16.6348-10.176-25.5766-27.494-31.5417l5.618-22.5332-13.717-3.4179-5.469 21.94c-3.606-.8994-7.309-1.7468-10.99-2.587l5.509-22.0847-13.708-3.4179-5.621 22.5259c-2.984-.6794-5.915-1.3509-8.759-2.0584l.016-.0709-18.9155-4.7235-3.6489 14.6502s10.1767 2.3328 9.9622 2.4764c5.5545 1.3863 6.559 5.0632 6.3922 7.9777l-6.3995 25.671c.3825.097.8786.237 1.426.457-.4576-.113-.9446-.237-1.4498-.358l-8.97 35.961c-.6788 1.687-2.4018 4.22-6.2852 3.258.1375.199-9.9695-2.488-9.9695-2.488l-6.8101 15.701 17.85 4.45c3.3208.833 6.5749 1.704 9.7795 2.523l-5.6761 22.792 13.7008 3.418 5.6209-22.55c3.743 1.016 7.375 1.954 10.931 2.837l-5.602 22.444 13.718 3.417 5.675-22.749c23.39 4.427 40.977 2.642 48.38-18.514 5.965-17.033-.297-26.858-12.602-33.264 8.962-2.067 15.713-7.962 17.513-20.139l-.004-.003zm-31.339 43.946c-4.239 17.033-32.918 7.825-42.216 5.517l7.532-30.195c9.298 2.321 39.114 6.914 34.684 24.678zm4.242-44.193c-3.867 15.494-27.737 7.622-35.48 5.692l6.829-27.385c7.743 1.9301 32.679 5.5325 28.652 21.693z" fill="#fff"/></g></svg>

<svg width="250" height="250" viewBox="0 0 250 250" fill="none" xmlns="http://www.w3.org/2000/svg">
<g clip-path="url(#clip0_9_616)">
<path d="M246.072 155.421C229.377 222.386 161.553 263.14 94.5798 246.441C27.635 229.746 -13.1186 161.917 3.58341 94.9579C20.2707 27.9856 88.0953 -12.771 155.047 3.92365C222.015 20.6183 262.767 88.4545 246.07 155.423L246.071 155.421H246.072Z" fill="#F7931A"/>
<path d="M180.12 107.191C182.608 90.5562 169.944 81.6144 152.626 75.6493L158.244 53.1161L144.527 49.6982L139.058 71.6382C135.452 70.7388 131.749 69.8914 128.068 69.0512L133.577 46.9665L119.869 43.5486L114.248 66.0745C111.264 65.3951 108.333 64.7236 105.489 64.0161L105.505 63.9452L86.5895 59.2217L82.9406 73.8719C82.9406 73.8719 93.1173 76.2047 92.9028 76.3483C98.4573 77.7346 99.4618 81.4115 99.295 84.326L92.8955 109.997C93.278 110.094 93.7741 110.234 94.3215 110.454C93.8639 110.341 93.3769 110.217 92.8717 110.096L83.9017 146.057C83.2229 147.744 81.4999 150.277 77.6165 149.315C77.754 149.514 67.647 146.827 67.647 146.827L60.8369 162.528L78.6869 166.978C82.0077 167.811 85.2618 168.682 88.4664 169.501L82.7903 192.293L96.4911 195.711L102.112 173.161C105.855 174.177 109.487 175.115 113.043 175.998L107.441 198.442L121.159 201.859L126.834 179.11C150.224 183.537 167.811 181.752 175.214 160.596C181.179 143.563 174.917 133.738 162.612 127.332C171.574 125.265 178.325 119.37 180.125 107.193L180.121 107.19L180.12 107.191ZM148.781 151.137C144.542 168.17 115.863 158.962 106.565 156.654L114.097 126.459C123.395 128.78 153.211 133.373 148.781 151.137H148.781ZM153.023 106.944C149.156 122.438 125.286 114.566 117.543 112.636L124.372 85.251C132.115 87.1811 157.051 90.7835 153.024 106.944H153.023Z" fill="white"/>
</g>
<defs>
<clipPath id="clip0_9_616">
<rect width="250" height="250" fill="white"/>
</clipPath>
</defs>
</svg>
